X: 1
T: Bad Hair
C: Rodney Miller 1985
R: jig
%S: s:4 b:16(4+4+4+4)
S: Fiddle Hell Online 2021-11-04
Z: 2021 John Chambers <jc:trillian.mit.edu>
M: 6/8
L: 1/8
K: G
dc |\
| "G"ABG G2A | ABd ABD | "C"EGG c2d | "D"e2e edc |
| "G"ABG G2A | ABd ABD | "C"EGG GAB | "D7"AGE "G"G :|
|: Bd |\
| "C"e2e edc | e2"F7"=f- f2e | "G"d2B BAG | Bde "G7"d2d |
| "C"e2e edc | e2"F7"g- g2e | "G"d2B BAG | "D7"AGE "G"G :|
